src/assets/images/apoyo.svg

<?xml version="1.0" encoding="iso-8859-1"?>
<!-- Generator: Adobe Illustrator 19.0.0, SVG Export Plug-In . SVG Version: 6.00 Build 0)  -->
<svg version="1.1" id="Capa_1" xmlns="http://www.w3.org/2000/svg" xmlns:xlink="http://www.w3.org/1999/xlink" x="0px" y="0px"
	 viewBox="0 0 512 512" style="enable-background:new 0 0 512 512;" xml:space="preserve">
<g>
	<g>
		<path d="M181.72,366.814c-0.723-0.206-1.463-0.322-2.208-0.362c10.954-11.513,17.7-27.066,17.7-44.174v-52.611
			c0-0.481-0.046-0.95-0.111-1.412c0.066-0.95,0.111-1.906,0.111-2.872v-33.286c0-5.523-4.477-10-10-10h-67.073
			c-28.245,0-51.223,22.979-51.223,51.223v48.958c0,17.108,6.745,32.661,17.7,44.174c-0.744,0.04-1.484,0.156-2.206,0.362
			C37.153,371.093,0,410.924,0,459.276V502c0,5.523,4.477,10,10,10h246.127c5.523,0,10-4.477,10-10v-42.724
			C266.127,410.925,228.976,371.094,181.72,366.814z M88.916,286.001v-12.682c0-17.216,14.007-31.223,31.223-31.223h57.073v23.286
			c0,11.723-9.537,21.26-21.26,21.26H88.916V286.001z M88.916,306.642h67.036c7.772,0,15.047-2.162,21.26-5.914v21.549
			c0,24.343-19.805,44.148-44.148,44.148c-24.343,0-44.148-19.805-44.148-44.148V306.642z M154.829,386.426l-21.765,21.766
			l-21.765-21.766H154.829z M246.128,492L246.128,492H20v-20h41.5c5.523,0,10-4.477,10-10s-4.477-10-10-10H20.365
			c3.359-33.716,29.806-60.717,63.255-64.969l42.373,42.373c1.875,1.875,4.419,2.929,7.071,2.929c2.652,0,5.196-1.054,7.071-2.929
			l42.373-42.373c35.824,4.553,63.62,35.204,63.62,72.245V492z"/>
	</g>
</g>
<g>
	<g>
		<path d="M427.595,144.718c-0.723-0.206-1.464-0.322-2.21-0.362c10.954-11.513,17.699-27.066,17.699-44.174V47.57
			c0-0.481-0.046-0.95-0.111-1.412c0.066-0.95,0.111-1.906,0.111-2.872V10c0-5.523-4.477-10-10-10h-67.073
			c-28.245,0-51.223,22.979-51.223,51.223v48.958c0,17.108,6.745,32.661,17.699,44.174c-0.745,0.04-1.487,0.156-2.21,0.362
			c-47.255,4.281-84.405,44.112-84.405,92.462v42.723c0,5.523,4.477,10,10,10h80.46c5.523,0,10-4.477,10-10s-4.477-10-10-10h-70.46
			V237.18c0-37.041,27.795-67.692,63.619-72.245l42.373,42.373c1.953,1.953,4.512,2.929,7.071,2.929s5.119-0.976,7.071-2.929
			l42.373-42.373C464.205,169.489,492,200.139,492,237.18v32.723h-73.667c-5.523,0-10,4.477-10,10s4.477,10,10,10H502
			c5.523,0,10-4.477,10-10V237.18C512,188.83,474.849,148.999,427.595,144.718z M378.937,186.095l-21.765-21.765h43.53
			L378.937,186.095z M423.085,100.181c0,24.343-19.805,44.148-44.148,44.148s-44.148-19.804-44.148-44.147V84.546h67.036
			c7.772,0,15.047-2.163,21.26-5.914V100.181z M423.085,43.286c0,11.723-9.537,21.26-21.26,21.26h-67.036v-0.641V51.223
			c0-17.216,14.007-31.223,31.223-31.223h57.073V43.286z"/>
	</g>
</g>
<g>
	<g>
		<path d="M386.01,272.83c-1.86-1.86-4.44-2.93-7.07-2.93c-2.64,0-5.21,1.07-7.07,2.93c-1.87,1.86-2.93,4.44-2.93,7.07
			c0,2.64,1.06,5.21,2.93,7.07c1.86,1.87,4.43,2.93,7.07,2.93c2.63,0,5.21-1.06,7.07-2.93c1.86-1.86,2.93-4.43,2.93-7.07
			C388.94,277.27,387.87,274.69,386.01,272.83z"/>
	</g>
</g>
<g>
	<g>
		<path d="M267.405,139.929l-41.821-41.821V50c0-27.57-22.43-50-50-50H50C22.43,0,0,22.43,0,50v88c0,27.57,22.43,50,50,50h125.583
			c20.674,0,38.702-12.407,46.266-31h38.484c4.044,0,7.691-2.437,9.239-6.173C271.12,147.091,270.264,142.789,267.405,139.929z
			 M214.554,137c-4.659,0-8.701,3.217-9.746,7.758C201.66,158.442,189.643,168,175.583,168H50c-16.542,0-30-13.458-30-30V50
			c0-16.542,13.458-30,30-30h125.583c16.542,0,30,13.458,30,30v52.25c0,2.652,1.054,5.196,2.929,7.071L236.191,137H214.554z"/>
	</g>
</g>
<g>
	<g>
		<path d="M462,324H336.417c-20.674,0-38.702,12.407-46.266,31h-38.484c-4.044,0-7.691,2.437-9.239,6.173
			c-1.548,3.736-0.692,8.038,2.167,10.898l41.821,41.821V462c0,27.57,22.43,50,50,50H462c27.57,0,50-22.43,50-50v-88
			C512,346.43,489.57,324,462,324z M492,462c0,16.542-13.458,30-30,30H336.417c-16.542,0-30-13.458-30-30v-52.25
			c0-2.652-1.054-5.196-2.929-7.071L275.809,375h21.637c4.659,0,8.701-3.217,9.746-7.758C310.34,353.558,322.357,344,336.417,344
			H462c16.542,0,30,13.458,30,30V462z"/>
	</g>
</g>
<g>
	<g>
		<path d="M444.156,391.392c-3.904-3.905-10.236-3.905-14.141,0l-26.583,26.583l-12.361-12.361c-3.905-3.905-10.237-3.905-14.143,0
			c-3.905,3.905-3.905,10.237,0,14.143l19.432,19.432c1.953,1.953,4.512,2.929,7.071,2.929s5.119-0.976,7.071-2.929l33.654-33.654
			C448.061,401.63,448.061,395.298,444.156,391.392z"/>
	</g>
</g>
<g>
	<g>
		<path d="M158.253,66.268c-1.182-17.147-15.004-30.969-32.151-32.151c-9.723-0.669-18.991,2.611-26.091,9.239
			c-7.001,6.535-11.017,15.775-11.017,25.349c0.001,5.524,4.478,10.001,10.001,10.001s10-4.477,10-10
			c0-4.111,1.656-7.921,4.664-10.729c3.003-2.804,6.938-4.196,11.069-3.906c7.239,0.499,13.074,6.334,13.573,13.573
			c0.505,7.319-4.293,13.787-11.408,15.379c-7.788,1.742-13.227,8.513-13.227,16.465v5.335c0,5.523,4.477,10,10,10s10-4.477,10-10
			v-2.91C149.16,97.291,159.385,82.684,158.253,66.268z"/>
	</g>
</g>
<g>
	<g>
		<path d="M130.74,136.02c-1.86-1.86-4.44-2.93-7.07-2.93c-2.64,0-5.21,1.07-7.07,2.93c-1.87,1.86-2.93,4.44-2.93,7.07
			s1.06,5.21,2.93,7.07c1.86,1.86,4.43,2.93,7.07,2.93c2.63,0,5.21-1.07,7.07-2.93c1.86-1.86,2.93-4.44,2.93-7.07
			S132.6,137.88,130.74,136.02z"/>
	</g>
</g>
<g>
	<g>
		<path d="M108.57,454.93c-1.86-1.86-4.44-2.93-7.07-2.93s-5.21,1.07-7.07,2.93s-2.93,4.44-2.93,7.07s1.07,5.21,2.93,7.07
			c1.86,1.86,4.44,2.93,7.07,2.93s5.21-1.07,7.07-2.93s2.93-4.44,2.93-7.07S110.43,456.79,108.57,454.93z"/>
	</g>
</g>
<g>
</g>
<g>
</g>
<g>
</g>
<g>
</g>
<g>
</g>
<g>
</g>
<g>
</g>
<g>
</g>
<g>
</g>
<g>
</g>
<g>
</g>
<g>
</g>
<g>
</g>
<g>
</g>
<g>
</g>
</svg>

<?xml version="1.0" encoding="UTF-8" standalone="no"?><!-- Generator: Gravit.io --><svg xmlns="http://www.w3.org/2000/svg" xmlns:xlink="http://www.w3.org/1999/xlink" style="isolation:isolate" viewBox="0 0 512 512" width="512pt" height="512pt"><defs><clipPath id="_clipPath_kGG1gja0DxhOSByvtJTF7sfaj0BzSRzB"><rect width="512" height="512"/></clipPath></defs><g clip-path="url(#_clipPath_kGG1gja0DxhOSByvtJTF7sfaj0BzSRzB)"><path d=" M 88.916 286.001 L 88.916 273.319 C 88.916 256.103 102.923 242.096 120.139 242.096 L 177.212 242.096 L 177.212 265.382 C 177.212 277.105 167.675 286.642 155.952 286.642 L 88.916 286.642 L 88.916 286.001 L 88.916 286.001 L 88.916 286.001 L 88.916 286.001 L 88.916 286.001 L 88.916 286.001 L 88.916 286.001 L 88.916 286.001 L 88.916 286.001 L 88.916 286.001 Z  M 88.916 306.642 L 155.952 306.642 C 163.724 306.642 170.999 304.48 177.212 300.728 L 177.212 322.277 C 177.212 346.62 157.407 366.425 133.064 366.425 C 108.721 366.425 88.916 346.62 88.916 322.277 L 88.916 306.642 L 88.916 306.642 L 88.916 306.642 L 88.916 306.642 L 88.916 306.642 L 88.916 306.642 L 88.916 306.642 L 88.916 306.642 L 88.916 306.642 L 88.916 306.642 Z  M 154.829 386.426 L 133.064 408.192 L 111.299 386.426 L 154.829 386.426 L 154.829 386.426 L 154.829 386.426 L 154.829 386.426 L 154.829 386.426 L 154.829 386.426 L 154.829 386.426 L 154.829 386.426 L 154.829 386.426 L 154.829 386.426 Z  M 246.128 492 L 246.128 492 L 20 492 L 20 472 L 61.5 472 C 67.023 472 71.5 467.523 71.5 462 C 71.5 456.477 67.023 452 61.5 452 L 20.365 452 C 23.724 418.284 50.171 391.283 83.62 387.031 L 125.993 429.404 C 127.868 431.279 130.412 432.333 133.064 432.333 C 135.716 432.333 138.26 431.279 140.135 429.404 L 182.508 387.031 C 218.332 391.584 246.128 422.235 246.128 459.276 L 246.128 492 L 246.128 492 L 246.128 492 L 246.128 492 L 246.128 492 L 246.128 492 L 246.128 492 L 246.128 492 L 246.128 492 L 246.128 492 Z  M 378.937 186.095 L 357.172 164.33 L 400.702 164.33 L 378.937 186.095 L 378.937 186.095 L 378.937 186.095 L 378.937 186.095 L 378.937 186.095 L 378.937 186.095 L 378.937 186.095 L 378.937 186.095 L 378.937 186.095 L 378.937 186.095 Z  M 423.085 100.181 C 423.085 124.524 403.28 144.329 378.937 144.329 C 354.594 144.329 334.789 124.525 334.789 100.182 L 334.789 84.546 L 401.825 84.546 C 409.597 84.546 416.872 82.383 423.085 78.632 L 423.085 100.181 L 423.085 100.181 L 423.085 100.181 L 423.085 100.181 L 423.085 100.181 L 423.085 100.181 L 423.085 100.181 L 423.085 100.181 L 423.085 100.181 L 423.085 100.181 Z  M 423.085 43.286 C 423.085 55.009 413.548 64.546 401.825 64.546 L 334.789 64.546 L 334.789 63.905 L 334.789 51.223 C 334.789 34.007 348.796 20 366.012 20 L 423.085 20 L 423.085 43.286 L 423.085 43.286 L 423.085 43.286 L 423.085 43.286 L 423.085 43.286 L 423.085 43.286 L 423.085 43.286 L 423.085 43.286 L 423.085 43.286 L 423.085 43.286 Z  M 386.01 272.83 C 384.15 270.97 381.57 269.9 378.94 269.9 C 376.3 269.9 373.73 270.97 371.87 272.83 C 370 274.69 368.94 277.27 368.94 279.9 C 368.94 282.54 370 285.11 371.87 286.97 C 373.73 288.84 376.3 289.9 378.94 289.9 C 381.57 289.9 384.15 288.84 386.01 286.97 C 387.87 285.11 388.94 282.54 388.94 279.9 C 388.94 277.27 387.87 274.69 386.01 272.83 L 386.01 272.83 L 386.01 272.83 L 386.01 272.83 L 386.01 272.83 L 386.01 272.83 L 386.01 272.83 Z  M 444.156 391.392 C 440.252 387.487 433.92 387.487 430.015 391.392 L 403.432 417.975 L 391.071 405.614 C 387.166 401.709 380.834 401.709 376.928 405.614 C 373.023 409.519 373.023 415.851 376.928 419.757 L 396.36 439.189 C 398.313 441.142 400.872 442.118 403.431 442.118 C 405.99 442.118 408.55 441.142 410.502 439.189 L 444.156 405.535 C 448.061 401.63 448.061 395.298 444.156 391.392 L 444.156 391.392 L 444.156 391.392 L 444.156 391.392 Z  M 158.253 66.268 C 157.071 49.121 143.249 35.299 126.102 34.117 C 116.379 33.448 107.111 36.728 100.011 43.356 C 93.01 49.891 88.994 59.131 88.994 68.705 C 88.995 74.229 93.472 78.706 98.995 78.706 C 104.518 78.706 108.995 74.229 108.995 68.706 C 108.995 64.595 110.651 60.785 113.659 57.977 C 116.662 55.173 120.597 53.781 124.728 54.071 C 131.967 54.57 137.802 60.405 138.301 67.644 C 138.806 74.963 134.008 81.431 126.893 83.023 C 119.105 84.765 113.666 91.536 113.666 99.488 L 113.666 104.823 C 113.666 110.346 118.143 114.823 123.666 114.823 C 129.189 114.823 133.666 110.346 133.666 104.823 L 133.666 101.913 C 149.16 97.291 159.385 82.684 158.253 66.268 L 158.253 66.268 L 158.253 66.268 Z  M 130.74 136.02 C 128.88 134.16 126.3 133.09 123.67 133.09 C 121.03 133.09 118.46 134.16 116.6 136.02 C 114.73 137.88 113.67 140.46 113.67 143.09 C 113.67 145.72 114.73 148.3 116.6 150.16 C 118.46 152.02 121.03 153.09 123.67 153.09 C 126.3 153.09 128.88 152.02 130.74 150.16 C 132.6 148.3 133.67 145.72 133.67 143.09 C 133.67 140.46 132.6 137.88 130.74 136.02 L 130.74 136.02 Z  M 492 462 C 492 478.542 478.542 492 462 492 L 336.417 492 C 319.875 492 306.417 478.542 306.417 462 L 306.417 409.75 C 306.417 407.098 305.363 404.554 303.488 402.679 L 275.809 375 L 297.446 375 C 302.105 375 306.147 371.783 307.192 367.242 C 310.34 353.558 322.357 344 336.417 344 L 462 344 C 478.542 344 492 357.458 492 374 L 492 462 L 492 462 L 492 462 L 492 462 L 492 462 L 492 462 L 492 462 Z  M 214.554 137 C 209.895 137 205.853 140.217 204.808 144.758 C 201.66 158.442 189.643 168 175.583 168 L 50 168 C 33.458 168 20 154.542 20 138 L 20 50 C 20 33.458 33.458 20 50 20 L 175.583 20 C 192.125 20 205.583 33.458 205.583 50 L 205.583 102.25 C 205.583 104.902 206.637 107.446 208.512 109.321 L 236.191 137 L 214.554 137 L 214.554 137 L 214.554 137 L 214.554 137 L 214.554 137 L 214.554 137 L 214.554 137 L 214.554 137 Z  M 462 324 L 336.417 324 C 315.743 324 297.715 336.407 290.151 355 L 251.667 355 C 247.623 355 243.976 357.437 242.428 361.173 C 240.88 364.909 241.736 369.211 244.595 372.071 L 286.416 413.892 L 286.416 462 C 286.416 489.57 308.846 512 336.416 512 L 462 512 C 489.57 512 512 489.57 512 462 L 512 374 C 512 346.43 489.57 324 462 324 L 462 324 L 462 324 L 462 324 L 462 324 L 462 324 Z  M 267.405 139.929 L 225.584 98.108 L 225.584 50 C 225.584 22.43 203.154 0 175.584 0 L 50 0 C 22.43 0 0 22.43 0 50 L 0 138 C 0 165.57 22.43 188 50 188 L 175.583 188 C 196.257 188 214.285 175.593 221.849 157 L 260.333 157 C 264.377 157 268.024 154.563 269.572 150.827 C 271.12 147.091 270.264 142.789 267.405 139.929 L 267.405 139.929 L 267.405 139.929 L 267.405 139.929 L 267.405 139.929 L 267.405 139.929 L 267.405 139.929 Z  M 427.595 144.718 C 426.872 144.512 426.131 144.396 425.385 144.356 C 436.339 132.843 443.084 117.29 443.084 100.182 L 443.084 47.57 C 443.084 47.089 443.038 46.62 442.973 46.158 C 443.039 45.208 443.084 44.252 443.084 43.286 L 443.084 10 C 443.084 4.477 438.607 0 433.084 0 L 366.011 0 C 337.766 0 314.788 22.979 314.788 51.223 L 314.788 100.181 C 314.788 117.289 321.533 132.842 332.487 144.355 C 331.742 144.395 331 144.511 330.277 144.717 C 283.022 148.998 245.872 188.829 245.872 237.179 L 245.872 279.902 C 245.872 285.425 250.349 289.902 255.872 289.902 L 336.332 289.902 C 341.855 289.902 346.332 285.425 346.332 279.902 C 346.332 274.379 341.855 269.902 336.332 269.902 L 265.872 269.902 L 265.872 237.18 C 265.872 200.139 293.667 169.488 329.491 164.935 L 371.864 207.308 C 373.817 209.261 376.376 210.237 378.935 210.237 C 381.494 210.237 384.054 209.261 386.006 207.308 L 428.379 164.935 C 464.205 169.489 492 200.139 492 237.18 L 492 269.903 L 418.333 269.903 C 412.81 269.903 408.333 274.38 408.333 279.903 C 408.333 285.426 412.81 289.903 418.333 289.903 L 502 289.903 C 507.523 289.903 512 285.426 512 279.903 L 512 237.18 C 512 188.83 474.849 148.999 427.595 144.718 L 427.595 144.718 L 427.595 144.718 L 427.595 144.718 L 427.595 144.718 L 427.595 144.718 L 427.595 144.718 L 427.595 144.718 L 427.595 144.718 Z  M 181.72 366.814 C 180.997 366.608 180.257 366.492 179.512 366.452 C 190.466 354.939 197.212 339.386 197.212 322.278 L 197.212 269.667 C 197.212 269.186 197.166 268.717 197.101 268.255 C 197.167 267.305 197.212 266.349 197.212 265.383 L 197.212 232.097 C 197.212 226.574 192.735 222.097 187.212 222.097 L 120.139 222.097 C 91.894 222.097 68.916 245.076 68.916 273.32 L 68.916 322.278 C 68.916 339.386 75.661 354.939 86.616 366.452 C 85.872 366.492 85.132 366.608 84.41 366.814 C 37.153 371.093 0 410.924 0 459.276 L 0 502 C 0 507.523 4.477 512 10 512 L 256.127 512 C 261.65 512 266.127 507.523 266.127 502 L 266.127 459.276 C 266.127 410.925 228.976 371.094 181.72 366.814 L 181.72 366.814 L 181.72 366.814 L 181.72 366.814 L 181.72 366.814 L 181.72 366.814 L 181.72 366.814 L 181.72 366.814 L 181.72 366.814 Z  M 108.57 454.93 C 106.71 453.07 104.13 452 101.5 452 C 98.87 452 96.29 453.07 94.43 454.93 C 92.57 456.79 91.5 459.37 91.5 462 C 91.5 464.63 92.57 467.21 94.43 469.07 C 96.29 470.93 98.87 472 101.5 472 C 104.13 472 106.71 470.93 108.57 469.07 C 110.43 467.21 111.5 464.63 111.5 462 C 111.5 459.37 110.43 456.79 108.57 454.93 Z " fill-rule="evenodd" fill="rgb(90,90,90)"/></g></svg>
